!!!OTL: 1358. Preussisches Fahnenlied. 1815.
!!!ARE: Europa, Mitteleuropa, Deutschland
!!!SCT: E1358
!!!TXL: @@DE
!!!YEM: Copyright 1995, estate of Helmut Schaffrath.
**kern	**text
*ICvox	*
*M4/4	*
*met(c)	*
*k[f#]	*
*G:	*
=1	=1
!LO:TX:a:t=Feierlich.	!
!LO:TX:a:t=Aus einem geſchriebenen Liederb. 1815-20.	!
{4g	Auf
8g	denn
8g	ʒum
4a	heil-
4cc	-gen
=2	=2
2b	Krieg!
2r}	.
=3	=3
{4b	Friſch
8a	auf
8b/	ʒum
4cc	Kampf
4b	und
=4	=4
2a	Sieg.
2r}	.
=5	=5
{4dd	friſch
8cc	auf
8b	ʒum
4cc	Kampf
4b	und
=6	=6
2a	Sieg,
2r}	.
=7	=7
{2a	mit
4cc#	uns
4cc#	iſt
=8	=8
2dd	Gott,
2r}	.
=9	=9
{(4.a	mit
8b/)	.
8aL	uns
8gJ	.
8f#L	iſt
8eJ	.
=10	=10
2d	Gott.
2r}	.
=11	=11
{4a	Von
8a	heil-
8a	-ger
4a	Glut
4a	ent-
=12	=12
2a	-brannt
2r}	.
=13	=13
{4b	hin
8b	ʒu
8b	dem
4b	Rheinſchen
4b	.
=14	=14
2b	Strand!
2r}	.
=15	=15
{4dd	Auf
8cc	für
8b	das
4cc	Va-
4b	-ter-
=16	=16
2a	-land!
2r}	.
=17	=17
{2b	Sieg
4b	o-
4b	-der
=18	=18
2b	Tod,
2r}	.
=19	=19
{2cc	Sieg
4b/	o-
4a	-der
=20	=20
2g	Tod!
2r}	.
==	==
!!!AGN: Staende -, Soldaten -, Kriegs - Lied
!!!ONB: ESAC (Essen Associative Code) Database: ERK3
!!!AMT: simple quadruple
!!!AIN: vox
!!!EED: Helmut Schaffrath
!!!EEV: 1.0
!!!GTL: Staendelieder (Berufslieder). 1. Soldaten- und Kriegslieder. Soldatenlieder seit dem 30jaehr. Kriege.
!!!URL-scan: https://rosdok.uni-rostock.de/mcrviewer/recordIdentifier/rosdok_ppn745177999/iview2/phys_0237.iview2?x=-128.77276441889285&y=544.3236105446704&scale=0.5870222003877487&rotation=0&layout=singlePageLayout
!!!ENC: Anna Maria Matuszewska
!!!EEV: 2024/12/30
*-	*-
